src/symbolic/places/folder-videos-symbolic.svg

<svg xmlns="http://www.w3.org/2000/svg" width="16" height="16"><path d="M2 3h9c1 0 1 1 1 1v8c0 1-1 1-1 1H2s-1 0-1-1V4s0-1 1-1zm14 1v8l-5-4z" fill="#565656"/></svg>

<svg xmlns="http://www.w3.org/2000/svg" width="16" height="16" version="1.1">
 <path style="fill:#565656" d="M 2,3 H 11 C 12,3 12,4 12,4 V 12 C 12,13 11,13 11,13 H 2 C 2,13 1,13 1,12 V 4 C 1,4 1,3 2,3 Z M 16,4 V 12 L 11,8 Z"/>
</svg>
